readme_banner.svg

<svg fill="none" height="528" viewBox="0 0 903 528" width="903" xmlns="http://www.w3.org/2000/svg" xmlns:xlink="http://www.w3.org/1999/xlink"><linearGradient id="a" gradientUnits="userSpaceOnUse" x1="235.627" x2="235.627" y1="53.5074" y2="313.722"><stop offset="0" stop-color="#faff00"/><stop offset="1" stop-color="#ffa800"/></linearGradient><linearGradient id="b" gradientUnits="userSpaceOnUse" x1="311.034" x2="161.855" y1="317.609" y2="317.609"><stop offset="0" stop-color="#ffe501"/><stop offset="1" stop-color="#ffa800"/></linearGradient><linearGradient id="c" gradientUnits="userSpaceOnUse" x1="756.116" x2="60.9044" y1="49.6206" y2="49.6206"><stop offset="0" stop-color="#ffe600"/><stop offset="1" stop-color="#ffa800"/></linearGradient><linearGradient id="d" gradientUnits="userSpaceOnUse" x1="84" x2="84" y1="374" y2="426"><stop offset="0" stop-color="#7daeea"/><stop offset="1" stop-color="#62a0ea"/></linearGradient><linearGradient id="e"><stop offset="0" stop-color="#9a9996"/><stop offset="1" stop-color="#77767b"/></linearGradient><linearGradient id="f" gradientUnits="userSpaceOnUse" x1="86" x2="86" xlink:href="#e" y1="468" y2="506"/><linearGradient id="g" gradientUnits="userSpaceOnUse" x1="254" x2="254" xlink:href="#e" y1="469" y2="507"/><mask id="h" height="43" maskUnits="userSpaceOnUse" width="900" x="0" y="325"><path d="m0 325h900v43h-900z" fill="#888"/></mask><rect fill="#5e5c64" height="178" rx="26" width="900" y="350"/><path d="m0 355h900v130h-900z" fill="#5e5c64"/><rect fill="#deddda" height="17.2078" rx="8.60388" width="68.831" x="185.538" y="430.303"/><rect fill="#deddda" height="17.2078" rx="8.60388" width="68.831" x="30" y="430"/><rect fill="#deddda" height="17.2078" rx="8.60388" width="68.831" x="495.278" y="430.303"/><rect fill="#deddda" height="17.2078" rx="8.60388" width="68.831" x="650.148" y="430.303"/><rect fill="#deddda" height="17.2078" rx="8.60388" width="68.831" x="805.018" y="430.303"/><rect fill="#deddda" height="17.2078" rx="8.60388" width="68.831" x="340.408" y="430.303"/><path d="m0 344h900v24h-900z" fill="#e0e0e0"/><path d="m0 344c0-10.493 8.50659-19 19-19h862c10.493 0 19 8.507 19 19 0 10.493-8.507 19-19 19h-862c-10.49339 0-19-8.507-19-19z" fill="#e0e0e0"/><g mask="url(#h)"><path d="m904.63 368.093v9.907h3.531v-9.907zm-944.2335 0h-3.5311v9.907h3.5311zm940.7015-43.093v43.093h7.063v-43.093zm3.532 33.187h-944.2335v19.813h944.2335zm-940.7023 9.906v-43.093h-7.0623v43.093z" fill="#888"/></g><g stroke="#303030" stroke-linecap="round" stroke-width="12"><path d="m206.813 68.2366 57.628 57.6894"/><path d="m206.813 241.304 57.628 57.689"/><path d="m206.813 183.615 57.628-57.689"/><path d="m206.813 125.926 57.628 57.689"/><path d="m206.813 183.615 57.628 57.689"/><path d="m206.813 241.304 57.628-57.689"/><path d="m206.813 298.993 57.628-57.689"/><path d="m206.813 125.926 57.628-57.6894"/></g><path clip-rule="evenodd" d="m193.734 67.8274c0-7.9087 6.405-14.32 14.305-14.32h1.226v260.2146h-1.226c-7.9 0-14.305-6.411-14.305-14.32zm68.255 245.8946h1.226c7.9 0 14.305-6.411 14.305-14.32v-231.5746c0-7.9087-6.405-14.32-14.305-14.32h-1.226z" fill="url(#a)" fill-rule="evenodd"/><path d="m176.16 298.993h120.569c7.9 0 14.305 6.411 14.305 14.32v8.592c0 7.909-6.405 14.32-14.305 14.32h-120.569c-7.9 0-14.305-6.411-14.305-14.32v-8.592c0-7.909 6.405-14.32 14.305-14.32z" fill="url(#b)"/><path d="m428.704 45.3246c0-7.9088-6.405-14.32-14.305-14.32h-299.136c-7.901 0-14.305 6.4112-14.305 14.3199v8.592c0 7.9088 6.404 14.32 14.305 14.32h107.081v39.2775c0 8.135 6.588 14.73 14.713 14.73h48.637l37.192-37.2326v-16.7749l91.513.0001c7.9 0 14.305-6.4113 14.305-14.32z" fill="url(#c)"/><path d="m115.263 11.7748h-42.9147c-9.0289 0-16.3483 7.3272-16.3483 16.3658v42.96c0 9.0385 7.3194 16.3657 16.3483 16.3657h42.9147c9.029 0 16.348-7.3272 16.348-16.3657v-42.96c0-9.0386-7.319-16.3658-16.348-16.3658z" fill="#303030"/><path d="m314.712 80.92-33.105 33.141h-11.649v-37.6416h44.754z" fill="#00c1cd"/><path d="m418.845 149.007c-1.866 9.269-9.826 11.771-16.154 12.09-5.551.28-16.22-3.291-14.488-19.815.317-3.022-3.83-4.701-3.83-4.701-.667-.28-1.266-.874 1.665-1.008 3.663-.168 6.993 3.359 7.992 5.877.999 2.519 2.831 9.068 7.328 8.564 4.496-.503 8.417-4.537 3.497-11.754-1.832-2.687-8.826-6.549-8.826-6.549-.889-.504-2.765-2.552-3.164-6.717-.4-4.164-.389-5.205-.333-5.205h11.991v7.556c11.324 4.87 16.653 10.075 14.322 21.662z" fill="#888"/><path d="m411.209 107.514h-26.975v12.275h26.975z" fill="#fafa00"/><path d="m400.541 68.2366h-5.722v39.2774h5.722z" fill="#303030"/><rect fill="#62a0ea" height="206" rx="11" width="437" x="438.704" y="140"/><path d="m740.704 140h135v59h-135z" fill="#62a0ea"/><path d="m641.704 21 234 119h-234z" fill="#62a0ea"/><rect fill="#deddda" height="14.6686" rx="6" transform="matrix(.89224561 .45155041 -.45155041 .89224561 67.812746 -284.172863)" width="306.169" x="629.327"/><rect fill="#3368aa" height="177" rx="10" width="210" x="649.704" y="162"/><rect fill="#3368aa" height="177" rx="10" width="210" x="649.704" y="162"/><rect fill="#77767b" height="177" rx="10" width="210" x="649.704" y="169"/><path d="m452.704 171c0-5.523 4.477-10 10-10h162c5.522 0 10 4.477 10 10v157c0 5.523-4.478 10-10 10h-162c-5.523 0-10-4.477-10-10z" fill="#3368aa"/><path d="m452.704 191h182v147h-182z" fill="#3368aa"/><path d="m452.704 179c0-5.523 4.477-10 10-10h162c5.522 0 10 4.477 10 10v157c0 5.523-4.478 10-10 10h-162c-5.523 0-10-4.477-10-10z" fill="#214470"/><path d="m452.704 199h182v147h-182z" fill="#214470"/><path d="m515.704 225h-63v116h63z" fill="#855e3d"/><path d="m578.704 284h-63v57h63z" fill="#5a3f28"/><path d="m562.704 287h-45v5h45z" fill="#fff" fill-opacity=".27" opacity=".5"/><path d="m540.704 294h-23v3h23z" fill="#fff" fill-opacity=".27" opacity=".5"/><path d="m481.704 326h-29v20h29z" fill="#b5835a"/><path d="m577.704 250h-53v96h53z" fill="#b5835a"/><path d="m577.704 250h-53v96h53z" fill="#b5835a"/><path d="m474.704 329h-18v5h18z" fill="#fff" opacity=".5"/><path d="m468.704 336h-12v3h12z" fill="#fff" opacity=".5"/><path d="m556.704 255h-27v5h27z" fill="#fff" opacity=".5"/><path d="m545.704 262h-16v3h16z" fill="#fff" opacity=".5"/><path d="m501.704 230h-45v5h45z" fill="#fff" fill-opacity=".51" opacity=".5"/><path d="m479.704 237h-23v3h23z" fill="#fff" fill-opacity=".51" opacity=".5"/><path d="m470.704 242h-14v3h14z" fill="#fff" fill-opacity=".51" opacity=".5"/><path d="m481.704 318h43v28h-43z" fill="#d4a782"/><path d="m577.704 274h57v72h-57z" fill="#d4a782"/><path d="m504.704 321h-20v5h20z" fill="#fff" opacity=".5"/><path d="m499.704 328h-15v3h15z" fill="#fff" opacity=".5"/><path d="m602.704 280h-20v5h20z" fill="#fff" opacity=".5"/><path d="m597.704 287h-15v3h15z" fill="#fff" opacity=".5"/><path d="m649.704 186h210v160h-210z" fill="#77767b"/><path d="m649.704 190h210v7h-210z" fill="#5e5c64"/><path d="m649.704 234h210v7h-210z" fill="#5e5c64"/><path d="m649.704 256h210v7h-210z" fill="#5e5c64"/><path d="m649.704 322h210v7h-210z" fill="#5e5c64"/><path d="m649.704 300h210v7h-210z" fill="#5e5c64"/><path d="m649.704 278h210v7h-210z" fill="#5e5c64"/><path d="m649.704 212h210v7h-210z" fill="#5e5c64"/><rect fill="#fff" height="122" rx="12" width="134" x="30" y="365"/><rect fill="url(#d)" height="52" rx="6" width="90" x="39" y="374"/><rect fill="#fff" height="188" rx="11" width="192" x="134" y="299"/><circle cx="86" cy="487" fill="#241f31" r="28"/><circle cx="86" cy="487" fill="url(#f)" r="19"/><path d="m86 472 2.1213.879.8787 2.121-.8787 2.121-2.1213.879-2.1213-.879-.8787-2.121.8787-2.121z" fill="#3d3846"/><path d="m100 485 2.121.879.879 2.121-.879 2.121-2.121.879-2.1213-.879-.8787-2.121.8787-2.121z" fill="#3d3846"/><path d="m86 498 2.1213.879.8787 2.121-.8787 2.121-2.1213.879-2.1213-.879-.8787-2.121.8787-2.121z" fill="#3d3846"/><path d="m72 485 2.1213.879.8787 2.121-.8787 2.121-2.1213.879-2.1213-.879-.8787-2.121.8787-2.121z" fill="#3d3846"/><circle cx="254" cy="488" fill="#241f31" r="28"/><circle cx="254" cy="488" fill="url(#g)" r="19"/><path d="m254 473 2.121.879.879 2.121-.879 2.121-2.121.879-2.121-.879-.879-2.121.879-2.121z" fill="#3d3846"/><path d="m268 486 2.121.879.879 2.121-.879 2.121-2.121.879-2.121-.879-.879-2.121.879-2.121z" fill="#3d3846"/><path d="m254 499 2.121.879.879 2.121-.879 2.121-2.121.879-2.121-.879-.879-2.121.879-2.121z" fill="#3d3846"/><path d="m240 486 2.121.879.879 2.121-.879 2.121-2.121.879-2.121-.879-.879-2.121.879-2.121z" fill="#3d3846"/><path d="m274.313 363.923v43.154l-37.373 21.578v-43.155z" fill="#3368aa"/><path d="m236.94 385.5v-43.155l-37.373 21.578z" fill="#3368aa"/><path d="m201.239 357.684c-3.865 2.231-6.239 6.343-6.239 10.806v34.02c0 4.463 2.374 8.575 6.239 10.806l29.462 17.01c3.866 2.232 8.613 2.232 12.478 0l29.462-17.01c3.866-2.231 6.239-6.343 6.239-10.806v-34.02c0-4.463-2.373-8.575-6.239-10.806l-29.462-17.01c-3.865-2.232-8.612-2.232-12.478 0zm37.373-9.1 29.462 17.01c1.03.595 1.672 1.707 1.672 2.896v34.02c0 1.189-.642 2.301-1.672 2.896l-29.462 17.01c-1.03.594-2.314.594-3.344 0l-29.462-17.01c-1.03-.595-1.672-1.707-1.672-2.896v-34.02c0-1.189.642-2.301 1.672-2.896l29.462-17.01c1.03-.594 2.314-.594 3.344 0z" fill="#3368aa"/><path d="m274.313 358.923v43.154l-37.373 21.578v-43.155z" fill="#4a90d9"/><path d="m236.94 380.5v-43.155l-37.373 21.578z" fill="#4a90d9"/><path d="m201.239 352.684c-3.865 2.231-6.239 6.343-6.239 10.806v34.02c0 4.463 2.374 8.575 6.239 10.806l29.462 17.01c3.866 2.232 8.613 2.232 12.478 0l29.462-17.01c3.866-2.231 6.239-6.343 6.239-10.806v-34.02c0-4.463-2.373-8.575-6.239-10.806l-29.462-17.01c-3.865-2.232-8.612-2.232-12.478 0zm37.373-9.1 29.462 17.01c1.03.595 1.672 1.707 1.672 2.896v34.02c0 1.189-.642 2.301-1.672 2.896l-29.462 17.01c-1.03.594-2.314.594-3.344 0l-29.462-17.01c-1.03-.595-1.672-1.707-1.672-2.896v-34.02c0-1.189.642-2.301 1.672-2.896l29.462-17.01c1.03-.594 2.314-.594 3.344 0z" fill="#4a90d9"/></svg>

<svg width="903" height="528" viewBox="0 0 903 528" fill="none" xmlns="http://www.w3.org/2000/svg">
<rect y="350" width="900" height="178" rx="26" fill="#5E5C64"/>
<rect y="355" width="900" height="130" fill="#5E5C64"/>
<rect x="185.538" y="430.303" width="68.831" height="17.2078" rx="8.60388" fill="#DEDDDA"/>
<rect x="30" y="430" width="68.831" height="17.2078" rx="8.60388" fill="#DEDDDA"/>
<rect x="495.278" y="430.303" width="68.831" height="17.2078" rx="8.60388" fill="#DEDDDA"/>
<rect x="650.148" y="430.303" width="68.831" height="17.2078" rx="8.60388" fill="#DEDDDA"/>
<rect x="805.018" y="430.303" width="68.831" height="17.2078" rx="8.60388" fill="#DEDDDA"/>
<rect x="340.408" y="430.303" width="68.831" height="17.2078" rx="8.60388" fill="#DEDDDA"/>
<path d="M0 344H900V368H0V344Z" fill="#E0E0E0"/>
<path d="M0 344C0 333.507 8.50659 325 19 325H881C891.493 325 900 333.507 900 344V344C900 354.493 891.493 363 881 363H19C8.50661 363 0 354.493 0 344V344Z" fill="#E0E0E0"/>
<mask id="mask0_34_221" style="mask-type:luminance" maskUnits="userSpaceOnUse" x="0" y="325" width="900" height="43">
<path d="M0 325H900V368H0V325Z" fill="#888888"/>
</mask>
<g mask="url(#mask0_34_221)">
<path d="M904.63 368.093V378H908.161V368.093H904.63ZM-39.6035 368.093H-43.1346V378H-39.6035V368.093ZM901.098 325V368.093H908.161V325H901.098ZM904.63 358.187H-39.6035V378H904.63V358.187ZM-36.0723 368.093V325H-43.1346V368.093H-36.0723Z" fill="#888888"/>
</g>
<path d="M206.813 68.2366L264.441 125.926" stroke="#303030" stroke-width="12" stroke-linecap="round"/>
<path d="M206.813 241.304L264.441 298.993" stroke="#303030" stroke-width="12" stroke-linecap="round"/>
<path d="M206.813 183.615L264.441 125.926" stroke="#303030" stroke-width="12" stroke-linecap="round"/>
<path d="M206.813 125.926L264.441 183.615" stroke="#303030" stroke-width="12" stroke-linecap="round"/>
<path d="M206.813 183.615L264.441 241.304" stroke="#303030" stroke-width="12" stroke-linecap="round"/>
<path d="M206.813 241.304L264.441 183.615" stroke="#303030" stroke-width="12" stroke-linecap="round"/>
<path d="M206.813 298.993L264.441 241.304" stroke="#303030" stroke-width="12" stroke-linecap="round"/>
<path d="M206.813 125.926L264.441 68.2366" stroke="#303030" stroke-width="12" stroke-linecap="round"/>
<path fill-rule="evenodd" clip-rule="evenodd" d="M193.734 67.8274C193.734 59.9187 200.139 53.5074 208.039 53.5074H209.265V313.722H208.039C200.139 313.722 193.734 307.311 193.734 299.402V67.8274ZM261.989 313.722H263.215C271.115 313.722 277.52 307.311 277.52 299.402V67.8274C277.52 59.9187 271.115 53.5074 263.215 53.5074H261.989V313.722Z" fill="url(#paint0_linear_34_221)"/>
<path d="M176.16 298.993H296.729C304.629 298.993 311.034 305.404 311.034 313.313V321.905C311.034 329.814 304.629 336.225 296.729 336.225H176.16C168.26 336.225 161.855 329.814 161.855 321.905V313.313C161.855 305.404 168.26 298.993 176.16 298.993Z" fill="url(#paint1_linear_34_221)"/>
<path d="M428.704 45.3246C428.704 37.4158 422.299 31.0046 414.399 31.0046L115.263 31.0046C107.362 31.0046 100.958 37.4158 100.958 45.3245V53.9165C100.958 61.8253 107.362 68.2365 115.263 68.2365H222.344V107.514C222.344 115.649 228.932 122.244 237.057 122.244H285.694L322.886 85.0114V68.2365L414.399 68.2366C422.299 68.2366 428.704 61.8253 428.704 53.9166V45.3246Z" fill="url(#paint2_linear_34_221)"/>
<path d="M115.263 11.7748H72.3483C63.3194 11.7748 56 19.102 56 28.1406V71.1006C56 80.1391 63.3194 87.4663 72.3483 87.4663H115.263C124.292 87.4663 131.611 80.1391 131.611 71.1006V28.1406C131.611 19.102 124.292 11.7748 115.263 11.7748Z" fill="#303030"/>
<path d="M314.712 80.92L281.607 114.061H269.958V76.4194H314.712V80.92Z" fill="#00C1CD"/>
<path d="M418.845 149.007C416.979 158.276 409.019 160.778 402.691 161.097C397.14 161.377 386.471 157.806 388.203 141.282C388.52 138.26 384.373 136.581 384.373 136.581C383.706 136.301 383.107 135.707 386.038 135.573C389.701 135.405 393.031 138.932 394.03 141.45C395.029 143.969 396.861 150.518 401.358 150.014C405.854 149.511 409.775 145.477 404.855 138.26C403.023 135.573 396.029 131.711 396.029 131.711C395.14 131.207 393.264 129.159 392.865 124.994C392.465 120.83 392.476 119.789 392.532 119.789H404.523V127.345C415.847 132.215 421.176 137.42 418.845 149.007Z" fill="#888888"/>
<path d="M411.209 107.514H384.234V119.789H411.209V107.514Z" fill="#FAFA00"/>
<path d="M400.541 68.2366H394.819V107.514H400.541V68.2366Z" fill="#303030"/>
<rect x="438.704" y="140" width="437" height="206" rx="11" fill="#62A0EA"/>
<rect x="740.704" y="140" width="135" height="59" fill="#62A0EA"/>
<path d="M641.704 21L875.704 140H641.704V21Z" fill="#62A0EA"/>
<rect x="629.327" width="306.169" height="14.6686" rx="6" transform="rotate(26.8432 629.327 0)" fill="#DEDDDA"/>
<rect x="649.704" y="162" width="210" height="177" rx="10" fill="#3368AA"/>
<rect x="649.704" y="162" width="210" height="177" rx="10" fill="#3368AA"/>
<rect x="649.704" y="169" width="210" height="177" rx="10" fill="#77767B"/>
<path d="M452.704 171C452.704 165.477 457.181 161 462.704 161H624.704C630.226 161 634.704 165.477 634.704 171V328C634.704 333.523 630.226 338 624.704 338H462.704C457.181 338 452.704 333.523 452.704 328V171Z" fill="#3368AA"/>
<path d="M452.704 191H634.704V338H452.704V191Z" fill="#3368AA"/>
<path d="M452.704 179C452.704 173.477 457.181 169 462.704 169H624.704C630.226 169 634.704 173.477 634.704 179V336C634.704 341.523 630.226 346 624.704 346H462.704C457.181 346 452.704 341.523 452.704 336V179Z" fill="#214470"/>
<path d="M452.704 199H634.704V346H452.704V199Z" fill="#214470"/>
<path d="M515.704 225H452.704V341H515.704V225Z" fill="#855E3D"/>
<path d="M578.704 284H515.704V341H578.704V284Z" fill="#5A3F28"/>
<path opacity="0.5" d="M562.704 287H517.704V292H562.704V287Z" fill="white" fill-opacity="0.27"/>
<path opacity="0.5" d="M540.704 294H517.704V297H540.704V294Z" fill="white" fill-opacity="0.27"/>
<path d="M481.704 326H452.704V346H481.704V326Z" fill="#B5835A"/>
<path d="M577.704 250H524.704V346H577.704V250Z" fill="#B5835A"/>
<path d="M577.704 250H524.704V346H577.704V250Z" fill="#B5835A"/>
<path opacity="0.5" d="M474.704 329H456.704V334H474.704V329Z" fill="white"/>
<path opacity="0.5" d="M468.704 336H456.704V339H468.704V336Z" fill="white"/>
<path opacity="0.5" d="M556.704 255H529.704V260H556.704V255Z" fill="white"/>
<path opacity="0.5" d="M545.704 262H529.704V265H545.704V262Z" fill="white"/>
<path opacity="0.5" d="M501.704 230H456.704V235H501.704V230Z" fill="white" fill-opacity="0.51"/>
<path opacity="0.5" d="M479.704 237H456.704V240H479.704V237Z" fill="white" fill-opacity="0.51"/>
<path opacity="0.5" d="M470.704 242H456.704V245H470.704V242Z" fill="white" fill-opacity="0.51"/>
<path d="M481.704 318H524.704V346H481.704V318Z" fill="#D4A782"/>
<path d="M577.704 274H634.704V346H577.704V274Z" fill="#D4A782"/>
<path opacity="0.5" d="M504.704 321H484.704V326H504.704V321Z" fill="white"/>
<path opacity="0.5" d="M499.704 328H484.704V331H499.704V328Z" fill="white"/>
<path opacity="0.5" d="M602.704 280H582.704V285H602.704V280Z" fill="white"/>
<path opacity="0.5" d="M597.704 287H582.704V290H597.704V287Z" fill="white"/>
<rect x="649.704" y="186" width="210" height="160" fill="#77767B"/>
<rect x="649.704" y="190" width="210" height="7" fill="#5E5C64"/>
<rect x="649.704" y="234" width="210" height="7" fill="#5E5C64"/>
<rect x="649.704" y="256" width="210" height="7" fill="#5E5C64"/>
<rect x="649.704" y="322" width="210" height="7" fill="#5E5C64"/>
<rect x="649.704" y="300" width="210" height="7" fill="#5E5C64"/>
<rect x="649.704" y="278" width="210" height="7" fill="#5E5C64"/>
<rect x="649.704" y="212" width="210" height="7" fill="#5E5C64"/>
<rect x="30" y="365" width="134" height="122" rx="12" fill="white"/>
<rect x="39" y="374" width="90" height="52" rx="6" fill="url(#paint3_linear_34_221)"/>
<rect x="134" y="299" width="192" height="188" rx="11" fill="white"/>
<circle cx="86" cy="487" r="28" fill="#241F31"/>
<circle cx="86" cy="487" r="19" fill="url(#paint4_linear_34_221)"/>
<path d="M86 472L88.1213 472.879L89 475L88.1213 477.121L86 478L83.8787 477.121L83 475L83.8787 472.879L86 472Z" fill="#3D3846"/>
<path d="M100 485L102.121 485.879L103 488L102.121 490.121L100 491L97.8787 490.121L97 488L97.8787 485.879L100 485Z" fill="#3D3846"/>
<path d="M86 498L88.1213 498.879L89 501L88.1213 503.121L86 504L83.8787 503.121L83 501L83.8787 498.879L86 498Z" fill="#3D3846"/>
<path d="M72 485L74.1213 485.879L75 488L74.1213 490.121L72 491L69.8787 490.121L69 488L69.8787 485.879L72 485Z" fill="#3D3846"/>
<circle cx="254" cy="488" r="28" fill="#241F31"/>
<circle cx="254" cy="488" r="19" fill="url(#paint5_linear_34_221)"/>
<path d="M254 473L256.121 473.879L257 476L256.121 478.121L254 479L251.879 478.121L251 476L251.879 473.879L254 473Z" fill="#3D3846"/>
<path d="M268 486L270.121 486.879L271 489L270.121 491.121L268 492L265.879 491.121L265 489L265.879 486.879L268 486Z" fill="#3D3846"/>
<path d="M254 499L256.121 499.879L257 502L256.121 504.121L254 505L251.879 504.121L251 502L251.879 499.879L254 499Z" fill="#3D3846"/>
<path d="M240 486L242.121 486.879L243 489L242.121 491.121L240 492L237.879 491.121L237 489L237.879 486.879L240 486Z" fill="#3D3846"/>
<path d="M274.313 363.923L274.313 407.077L236.94 428.655V385.5L274.313 363.923Z" fill="#3368AA"/>
<path d="M236.94 385.5V342.345L199.567 363.923L236.94 385.5Z" fill="#3368AA"/>
<path d="M201.239 357.684C197.374 359.915 195 364.027 195 368.49V402.51C195 406.973 197.374 411.085 201.239 413.316L230.701 430.326C234.567 432.558 239.314 432.558 243.179 430.326L272.641 413.316C276.507 411.085 278.88 406.973 278.88 402.51V368.49C278.88 364.027 276.507 359.915 272.641 357.684L243.179 340.674C239.314 338.442 234.567 338.442 230.701 340.674L201.239 357.684ZM238.612 348.584L268.074 365.594C269.104 366.189 269.746 367.301 269.746 368.49V402.51C269.746 403.699 269.104 404.811 268.074 405.406L238.612 422.416C237.582 423.01 236.298 423.01 235.268 422.416L205.806 405.406C204.776 404.811 204.134 403.699 204.134 402.51V368.49C204.134 367.301 204.776 366.189 205.806 365.594L235.268 348.584C236.298 347.99 237.582 347.99 238.612 348.584Z" fill="#3368AA"/>
<path d="M274.313 358.923L274.313 402.077L236.94 423.655V380.5L274.313 358.923Z" fill="#4A90D9"/>
<path d="M236.94 380.5V337.345L199.567 358.923L236.94 380.5Z" fill="#4A90D9"/>
<path d="M201.239 352.684C197.374 354.915 195 359.027 195 363.49V397.51C195 401.973 197.374 406.085 201.239 408.316L230.701 425.326C234.567 427.558 239.314 427.558 243.179 425.326L272.641 408.316C276.507 406.085 278.88 401.973 278.88 397.51V363.49C278.88 359.027 276.507 354.915 272.641 352.684L243.179 335.674C239.314 333.442 234.567 333.442 230.701 335.674L201.239 352.684ZM238.612 343.584L268.074 360.594C269.104 361.189 269.746 362.301 269.746 363.49V397.51C269.746 398.699 269.104 399.811 268.074 400.406L238.612 417.416C237.582 418.01 236.298 418.01 235.268 417.416L205.806 400.406C204.776 399.811 204.134 398.699 204.134 397.51V363.49C204.134 362.301 204.776 361.189 205.806 360.594L235.268 343.584C236.298 342.99 237.582 342.99 238.612 343.584Z" fill="#4A90D9"/>
<defs>
<linearGradient id="paint0_linear_34_221" x1="235.627" y1="53.5074" x2="235.627" y2="313.722" gradientUnits="userSpaceOnUse">
<stop stop-color="#FAFF00"/>
<stop offset="1" stop-color="#FFA800"/>
</linearGradient>
<linearGradient id="paint1_linear_34_221" x1="311.034" y1="317.609" x2="161.855" y2="317.609" gradientUnits="userSpaceOnUse">
<stop stop-color="#FFE501"/>
<stop offset="1" stop-color="#FFA800"/>
</linearGradient>
<linearGradient id="paint2_linear_34_221" x1="756.116" y1="49.6206" x2="60.9044" y2="49.6206" gradientUnits="userSpaceOnUse">
<stop stop-color="#FFE600"/>
<stop offset="1" stop-color="#FFA800"/>
</linearGradient>
<linearGradient id="paint3_linear_34_221" x1="84" y1="374" x2="84" y2="426" gradientUnits="userSpaceOnUse">
<stop stop-color="#7DAEEA"/>
<stop offset="1" stop-color="#62A0EA"/>
</linearGradient>
<linearGradient id="paint4_linear_34_221" x1="86" y1="468" x2="86" y2="506" gradientUnits="userSpaceOnUse">
<stop stop-color="#9A9996"/>
<stop offset="1" stop-color="#77767B"/>
</linearGradient>
<linearGradient id="paint5_linear_34_221" x1="254" y1="469" x2="254" y2="507" gradientUnits="userSpaceOnUse">
<stop stop-color="#9A9996"/>
<stop offset="1" stop-color="#77767B"/>
</linearGradient>
</defs>
</svg>
